X: 0017
T: Sv\^ole-leken
T: Sval-l\aaten
O: efter Halvar B\"ockman
%R: polska
B: Paul B\"ackstr\"om's "L\aatar fr\aan Dalarna" collection" 1974
Z: 2022 John Chambers <jc:trillian.mit.edu>
M: 3/4
L: 1/16
K: D
%%slurgraces 1
%%graceslurs 1
% - - - - - - - - - -
|:\
([AD] a4) (fefa) g2(b2 | a3)g f2a2 g2eg | {fg}f3e d2ef g3(f | e2)fg a4 (3(b2g2b2) | a3g f2a2 {gf}g2(b2 |
a3)(g f2)a2 g2eg | f4 d2(ef g3)f | d>fec d8 :: [A2D2]f2 d2ec [A4A4] | [A2D2]f2 d2ec [A4A4] |
[A2D2]f2 g3e (3(g2a2g2) | (3(f2g2f2) d4 (fgfe) |[1 (3(c2e2d2) (3(B2c2B2) A4 :|[2 (cAce) [d8F8] || "_pizz"H[e12A12] |]
% - - - - - - - - - -
%%text Jmf. K.E.F. s\"arna nr 20   23
%%text Uppt. Ture Gudmundsson
